X: 1
T: Dorcas Baker S.S.M.
C: Mike Briggs
R: strathspey
Z: 2014 John Chambers <jc:trillian.mit.edu>
S: printed page frim Mike Briggs (via Sylvia Miskoe)
M: C
L: 1/8
K: F
c>B |\
"F"A<c F2 "D7"c2 B>A | "Gm"B<d G2 "C7"d2 c>B |\
"F"A<c F2 "D7"d>c BA | "Gm"BA "G7"GF "C7"c2 ||
c>B |\
"F"A<c F2 "D7"c2 B>A | "Gm"B<d G2 "C7"d2 (3cde |\
"F"f<c "D7"d>A "Gm"B<G "C7"c>B | "F"A<c "Bb"F2 "F"F2 |]
(3cde |\
"F"f<F f2 "F7"f<F f2 | "Bb"f<F f2 "Bbm"f2 ed |\
"F"c2 A2 "D7"dc BA | "Bb"BA "G7"GF "C7"c2 ||
(3cde |\
"F"f<F f2 "F7"f<F f2 | "Bb"f<F f2 "Bdim"f<F f2 |\
"F"c2 "D7"d<A "Gm"B<G "C7"c>B | "F"A<c "Bb"F2 "F"F2 :|
